packages/elvis-assets-icons/icons/svg/src/folder_open.svg

<svg width="24" height="24" fill="none" xmlns="http://www.w3.org/2000/svg"><path d="M2.447 22.5a.731.731 0 01-.223-.034A2.464 2.464 0 010 20.06V3.75A2.252 2.252 0 012.25 1.5h4.5C7.99 1.5 9 2.509 9 3.75v.75h9.75C19.99 4.5 21 5.509 21 6.75V9h.75c.601 0 1.166.234 1.591.658a2.235 2.235 0 01.583 2.171l-2.196 8.985A2.258 2.258 0 0119.55 22.5H2.447zM19.55 21a.75.75 0 00.725-.557l2.196-8.985a.746.746 0 00-.721-.958H7.878a.754.754 0 00-.721.541l-2.342 9.625a2.81 2.81 0 01-.119.334H19.55zM2.25 3a.75.75 0 00-.75.75v16.3a.95.95 0 001.864.235l2.344-9.631A2.276 2.276 0 017.877 9H19.5V6.75a.75.75 0 00-.75-.75H8.25a.75.75 0 01-.75-.75v-1.5A.75.75 0 006.75 3h-4.5z" fill="#000"/></svg>

<svg width="24" height="24" viewBox="0 0 24 24" fill="none" xmlns="http://www.w3.org/2000/svg">
<path d="M2.447 22.5C2.371 22.5 2.296 22.489 2.224 22.466C0.99 22.353 0.017 21.306 0 20.06V3.75C0 2.509 1.009 1.5 2.25 1.5H6.75C7.99 1.5 9 2.509 9 3.75V4.5H18.75C19.99 4.5 21 5.509 21 6.75V9H21.75C22.351 9 22.916 9.234 23.341 9.658C23.766 10.083 24 10.648 24 11.249C24 11.444 23.975 11.64 23.924 11.829L21.728 20.814C21.464 21.81 20.569 22.5 19.55 22.5H2.447ZM19.55 21C19.89 21 20.188 20.771 20.275 20.443L22.471 11.458C22.491 11.381 22.5 11.316 22.5 11.251C22.5 11.049 22.422 10.861 22.28 10.719C22.138 10.577 21.95 10.5 21.75 10.5H7.878C7.546 10.5 7.25 10.722 7.157 11.041L4.815 20.666C4.782 20.781 4.742 20.893 4.696 21H19.55ZM2.25 3C1.836 3 1.5 3.336 1.5 3.75V20.05C1.507 20.559 1.933 20.977 2.45 20.977C2.881 20.971 3.251 20.687 3.364 20.285L5.708 10.654C5.992 9.673 6.883 9 7.877 9H19.5V6.75C19.5 6.336 19.163 6 18.75 6H8.25C7.836 6 7.5 5.664 7.5 5.25V3.75C7.5 3.336 7.163 3 6.75 3H2.25Z" fill="black"/>
</svg>
